X: 83
T:The White Rose of Summer
M:6/8
L:1/8
Q:130
S:Michael Raven (Hynde Horn)
R:Jig
A:Wales
Z:brian_martin12345@yahoo.com
K:Em
E|E2GB2B|BAGF2E|E3G3|AGFE2:||!
B|B2^cd2c/B/|B2^c ddB|B^c^de2e|e=d^cB2B|!
eeBB2B|BAG FE2|E3G3|AGFE2||

